lib/brands/icons/google-translate.svg

<svg xmlns="http://www.w3.org/2000/svg" fill="none" aria-hidden="true" viewBox="0 0 48 48"><g id="google-translate-Icon"><g id="Group"><path id="Vector" fill="#DBDBDB" d="M37.8688 40C39.0387 40 39.9972 39.0576 39.9972 37.9036V16.5201C39.9972 15.3661 39.0387 14.4237 37.8688 14.4237H17.0942L25.4316 40H37.8688Z"/><path id="Vector_2" fill="#DCDCDC" d="M37.8688 15.3854C38.1797 15.3854 38.4746 15.5072 38.6958 15.7251C38.9137 15.9399 39.0355 16.222 39.0355 16.5201V37.9036C39.0355 38.2017 38.9169 38.4838 38.6958 38.6986C38.4746 38.9166 38.1797 39.0384 37.8688 39.0384H26.1304L18.4181 15.3854H37.8688V15.3854ZM37.8688 14.4237H17.0942L25.4316 40H37.8688C39.0387 40 39.9972 39.0576 39.9972 37.9036V16.5201C39.9972 15.3661 39.0387 14.4237 37.8688 14.4237V14.4237Z"/><path id="Vector_3" fill="#4352B8" d="M23.4634 33.9577L25.4315 40L30.9032 33.9577H23.4634Z"/><path id="Vector_4" fill="#607988" d="M38.0096 23.2611V22.0078H31.9673V19.982H30.0056V22.0078H26.1494V23.2611H33.8233C33.413 24.7068 32.5058 26.0723 31.6211 27.1333C30.0537 25.2774 30.0472 24.6747 30.0472 24.6747H28.4189C28.4189 24.6747 28.4862 25.5787 30.6851 28.1559C29.9703 28.8867 29.4286 29.3194 29.4286 29.3194L29.9286 30.8837C29.9286 30.8837 30.6851 30.233 31.6307 29.2297C32.5795 30.2586 33.804 31.4959 35.3875 32.9704L36.4165 31.9415C34.7208 30.4029 33.4771 29.1816 32.5635 28.2007C33.788 26.7519 35.0317 24.928 35.2946 23.2579H38.0064V23.2611H38.0096Z"/><path id="Vector_5" fill="#4285F4" d="M10.1318 8C8.96185 8 8.00342 8.95843 8.00342 10.1316V31.8325C8.00342 33.0025 8.96185 33.9609 10.1318 33.9609H30.9064L22.569 8H10.1318V8Z"/><path id="Vector_6" fill="url(#paint0_linear_94_18134)" d="M25.1304 14.4237H37.8688C39.0388 14.4237 39.9972 15.3661 39.9972 16.5201V29.3483L25.1304 14.4237Z"/><path id="Vector_7" fill="#EEEEEE" d="M19.9085 21.8027C19.8283 22.7739 18.9981 24.2132 16.9883 24.2132C15.2477 24.2132 13.8373 22.7739 13.8373 21.0013C13.8373 19.2287 15.2477 17.7894 16.9883 17.7894C17.9788 17.7894 18.6391 18.219 19.0173 18.5684L20.338 17.299C19.4693 16.4976 18.3378 15.9976 16.9883 15.9976C14.2284 15.9976 11.9878 18.2382 11.9878 20.9981C11.9878 23.758 14.2284 25.9986 16.9883 25.9986C19.8796 25.9986 21.7901 23.9695 21.7901 21.1071C21.7901 20.6968 21.7388 20.3955 21.6715 20.0877H16.9915V21.7995L19.9085 21.8027V21.8027Z"/><path id="Vector_8" fill="url(#paint1_radial_94_18134)" d="M37.8686 14.4237H24.6333L22.569 8H10.1318C8.96185 8 8.00342 8.95843 8.00342 10.1316V31.8325C8.00342 33.0025 8.96185 33.9609 10.1318 33.9609H23.4633L25.4314 40H37.8686C39.0386 40 39.997 39.0576 39.997 37.9036V16.5201C39.997 15.3661 39.0386 14.4237 37.8686 14.4237V14.4237Z"/></g></g><defs><linearGradient id="paint0_linear_94_18134" x1="25.1304" x2="39.9972" y1="21.886" y2="21.886" gradientUnits="userSpaceOnUse"><stop stop-color="white" stop-opacity="0.2"/><stop offset="1" stop-color="white" stop-opacity="0.02"/></linearGradient><radialGradient id="paint1_radial_94_18134" cx="0" cy="0" r="1" gradientTransform="translate(10.094 8.62) scale(44.8209)" gradientUnits="userSpaceOnUse"><stop stop-color="white" stop-opacity="0.1"/><stop offset="1" stop-color="white" stop-opacity="0"/></radialGradient></defs></svg>

<svg xmlns="http://www.w3.org/2000/svg" fill="none" aria-hidden="true" viewBox="0 0 48 48"><path fill="#DBDBDB" d="M37.868 40c1.17 0 2.129-.942 2.129-2.096V16.52c0-1.154-.959-2.096-2.129-2.096H17.094L25.43 40h12.437Z"/><path fill="#DCDCDC" d="M37.868 15.385c.311 0 .606.122.827.34.218.215.34.497.34.795v21.384a1.1 1.1 0 0 1-.34.795c-.22.218-.516.34-.827.34H26.13l-7.712-23.654h19.45Zm0-.961H17.094L25.43 40h12.437c1.17 0 2.129-.942 2.129-2.096V16.52c0-1.154-.959-2.096-2.129-2.096Z"/><path fill="#4352B8" d="M23.463 33.958 25.431 40l5.472-6.042h-7.44Z"/><path fill="#607988" d="M38.01 23.261v-1.253h-6.043v-2.026h-1.962v2.026H26.15v1.253h7.674c-.41 1.446-1.317 2.811-2.202 3.872-1.567-1.856-1.574-2.458-1.574-2.458H28.42s.067.904 2.266 3.48c-.715.732-1.256 1.164-1.256 1.164l.5 1.565s.756-.651 1.702-1.654a70.133 70.133 0 0 0 3.756 3.74l1.03-1.028c-1.696-1.54-2.94-2.76-3.854-3.741 1.225-1.45 2.469-3.273 2.731-4.943h2.712v.003h.004Z"/><path fill="#4285F4" d="M10.132 8c-1.17 0-2.129.958-2.129 2.132v21.7c0 1.17.959 2.129 2.129 2.129h20.774L22.57 8H10.132Z"/><path fill="url(#a)" d="M25.13 14.424h12.738c1.17 0 2.129.942 2.129 2.096v12.828L25.13 14.424Z"/><path fill="#EEE" d="M19.908 21.803c-.08.97-.91 2.41-2.92 2.41-1.74 0-3.15-1.44-3.15-3.212 0-1.772 1.41-3.212 3.15-3.212.99 0 1.65.43 2.03.78l1.32-1.27a4.841 4.841 0 0 0-3.35-1.301c-2.76 0-5 2.24-5 5s2.24 5 5 5c2.891 0 4.802-2.029 4.802-4.89a4.41 4.41 0 0 0-.119-1.02h-4.68v1.711l2.917.004Z"/><path fill="url(#b)" d="M37.868 14.424H24.633L22.57 8H10.132c-1.17 0-2.129.958-2.129 2.132v21.7c0 1.17.959 2.129 2.129 2.129h13.331L25.431 40h12.437c1.17 0 2.129-.942 2.129-2.096V16.52c0-1.154-.959-2.096-2.129-2.096Z"/><defs><radialGradient id="b" cx="0" cy="0" r="1" gradientTransform="translate(10.093 8.62) scale(44.8209)" gradientUnits="userSpaceOnUse"><stop stop-color="#fff" stop-opacity=".1"/><stop offset="1" stop-color="#fff" stop-opacity="0"/></radialGradient><linearGradient id="a" x1="25.13" x2="39.997" y1="21.886" y2="21.886" gradientUnits="userSpaceOnUse"><stop stop-color="#fff" stop-opacity=".2"/><stop offset="1" stop-color="#fff" stop-opacity=".02"/></linearGradient></defs></svg>
